!!!!SEGMENT: pl-wtm--670-sp-3678--001-001_reinecke-carl--piosenki-dla-mlodocianego-wieku-piotr-maszynski-1-biedny-ptaszek.krn
!!!cenid: 18xx:4753
!!!COM: Reinecke, Carl
!!!COM-rismID: pe42007
!!!CDT: 1824/06/23-1910/03/10
!!!CNT: German
!!!GTL: Piosenki dla młodocianego wieku (Piotr Maszyński)
!!!OTL: 1. Biedny ptaszek
!!!OMV: 001
!!!PDT: 1871
!!!AGN: Secular; Song; Children
!!!YEC: Copyright 2022 Narodowy Instytut Fryderyka Chopina (https://polishscores.org)
!!!YEM: License CC-BY-4.0 (https://creativecommons.org/licenses/by/4.0)
!!!SMS-siglum: PL-Wtm
!!!SMS-shelfmark: 670 śp 3678
!!!SMS-variant:
!!!SMS-altvar:
!!!SMS-shelfwork: 001-001 G
!!!NIFC-rismSourceID: 1001185478
!!!NIFC-rismChildID: 1001185478
!!!NIFC-islandoraID: pl-wtm:57754
!!!URL-pdf-islandora: https://repozytorium.nifc.pl/islandora/object/pl-wtm%3A57754/datastream/PDF/view
!!!URL-scan: https://polish.musicsources.pl/pl/lokalizacje/galeria/druki-muzyczne/19483/2 @EN{Scan on Polish Music Sources Website} @PL{Skany w portalu Dziedzictwo Muzyki Polskiej w otwartym dostępie}
!!!IIIF:
!!!ONB-nifc:
!!!AIN: 1 canto 1 piano
!!!key: e
**kern	**kern	**dynam	**kern	**text	**text	**text	**dynam
*part2	*part2	*part2	*part1	*part1	*part1	*part1	*part1
*staff3	*staff2	*staff2/3	*staff1	*staff1	*staff1	*staff1	*
*IGacmp	*IGacmp	*	*	*	*	*	*
*ICklav	*ICklav	*	*ICvox	*	*	*	*
*Ipiano	*Ipiano	*	*Icanto	*	*	*	*
*I"Fortepian.	*I"Fortepian.	*	*I"Śpiew.	*	*	*	*
*I'	*I'	*	*I'	*	*	*	*
*clefF4	*clefG2	*	*clefG2	*	*	*	*
*k[f#]	*k[f#]	*	*k[f#]	*	*	*	*
*e:	*e:	*	*e:	*	*	*	*
*M6/8	*M6/8	*	*M6/8	*	*	*	*
=1	=1	=1	=1	=1	=1	=1	=1
*	*^	*	*	*	*	*	*
!!LO:TX:a:B:t=Andantino.
!	!	!	!LO:DY:rj	!	!	!	!	!LO:DY:a
4.e\	(8g/L	4.ryy	p	8g/	Bie-	Pró-	Ni	p
.	8f#/ 8a	.	.	8a/	-dny	-żnoś	się	.
.	8g/J) 8b	.	.	8b\	mój	za	gdzie	.
4.A\ 4.e	4cc/	4.a\	.	4cc\	pta-	ziarn-	u-	.
.	8cc/	.	.	8cc\	-szku	-kiem	-kryć	.
=2	=2	=2	=2	=2	=2	=2	=2	=2
4.B\ 4.d#X	(4b/	4.f#\	.	(4b\	dro-	go-	by-	.
.	8a/)	.	.	8a/)	.	.	.	.
4.e\	4.g/	4.ryy	.	4.g/	-gi	-nił,	-ło,	.
=3	=3	=3	=3	=3	=3	=3	=3	=3
4.c\	(8e/L	4.e\	.	8e/	ta-	pró-	ni	.
.	8f#/	.	.	8f#/	-kiż	-żnoś	szu-	.
.	8g/J)	.	.	8g/	cię	się	-kać	.
4.F#\ 4.c	4a/	4.e\	.	4a/	cze-	gło-	ziarn-	.
.	8a/	.	.	8a/	-kał	-du	-ka	.
*	*v	*v	*	*	*	*	*	*
!!LO:LB:g=original
=4	=4	=4	=4	=4	=4	=4	=4
4.B\	2.d#X/ 2.f#	.	2.f#/	los,	strzegł,	gdzie,	.
[4.B\	.	.	.	.	.	.	.
=5	=5	=5	=5	=5	=5	=5	=5
!	!	!	!	!	!	!	!LO:DY:a
4.E\ 4.B]	(8e/L 8g	.	8g/	o-	wszyst-	śnieg	<
.	8f#/ 8a	.	8a/	-to	-ko	wy-	.
.	8g/J) 8b	.	8b\	wpół	przez	-rosł	.
4.AA\ 4.A	4a\ 4cc	.	4cc\	zi-	noc	ci	.
.	8g\ 8ee	.	8ee\	-my	przy-	mo-	[[
=6	=6	=6	=6	=6	=6	=6	=6
*	*^	*	*	*	*	*	*
!	!	!	!	!	!	!	!	!LO:DY:a
4.D\ 4.A	(4dd/	4.f#\	.	4dd\	sro-	-sło-	-gi-	>
.	8cc/)	.	.	8cc\	-giej	-nił	-łą,	.
(8G'\L	(8g'/L 8b	4.ryy	.	8b\	za-	jak-	żal	.
8A'\	8a'/	.	.	8a/	-milkł	-by	mi	.
8B'\J)	8g'/J)	.	.	8g/	na-	ca-	cię	]]
=7	=7	=7	=7	=7	=7	=7	=7	=7
*^	*	*	*	*	*	*	*	*
4.c\	4.ryy	4.f#/	4.e\	.	4.f#/	-raz	-łu-	pta-	.
(4B/	4.BB\	(8a/L	4d#X\	.	8a/	twój	-nem	-szku,	.
.	.	8g/	.	.	8g/	mi-	bia-	żal	.
8A/)	.	8f#/J)	8ryy	.	8f#/	-ły	-ły	mi	.
*	*	*v	*v	*	*	*	*	*	*
=8	=8	=8	=8	=8	=8	=8	=8	=8
2.G/	2.E;\	2.e;/	.	2.e;/	głos.	śnieg.	cię.	.
*v	*v	*	*	*	*	*	*	*
==	==	==	==	==	==	==	==
*-	*-	*-	*-	*-	*-	*-	*-
!!!system-decoration: s1{(s2,s3)}
!!!RDF**kern: > = above
!!!RDF**kern: < = below
!!!RDF**kern: N = linked
!!!ENC: Andrzej Gręziak
!!!EED: Katarzyna Serwa
!!!END: 2025-03-25
!!!EEV: 2025-03-27
